hero/outline/academic-cap.svg

<svg width="24" height="24" viewBox="0 0 24 24" fill="none" xmlns="http://www.w3.org/2000/svg">
<path d="M4.25933 10.1466C3.98688 12.2307 3.82139 14.3483 3.76853 16.494C6.66451 17.703 9.41893 19.1835 12 20.9036C14.5811 19.1835 17.3355 17.703 20.2315 16.494C20.1786 14.3484 20.0131 12.2307 19.7407 10.1467M4.25933 10.1466C3.38362 9.8523 2.49729 9.58107 1.60107 9.3337C4.84646 7.05887 8.32741 5.0972 12 3.49255C15.6727 5.0972 19.1536 7.05888 22.399 9.33371C21.5028 9.58109 20.6164 9.85233 19.7407 10.1467M4.25933 10.1466C6.94656 11.0499 9.5338 12.1709 12.0001 13.4886C14.4663 12.1709 17.0535 11.0499 19.7407 10.1467M6.75 15C7.16421 15 7.5 14.6642 7.5 14.25C7.5 13.8358 7.16421 13.5 6.75 13.5C6.33579 13.5 6 13.8358 6 14.25C6 14.6642 6.33579 15 6.75 15ZM6.75 15V11.3245C8.44147 10.2735 10.1936 9.31094 12 8.44329M4.99264 19.9926C6.16421 18.8211 6.75 17.2855 6.75 15.75V14.25" stroke="#0F172A" stroke-width="1.5" stroke-linecap="round" stroke-linejoin="round"/>
</svg>

<svg viewBox="0 0 24 24" xmlns="http://www.w3.org/2000/svg"><path fill="none" stroke="#000" stroke-linecap="round" stroke-linejoin="round" stroke-width="1.5" d="M4.26 10.14l0 0c-.28 2.1-.44 4.22-.5 6.34v0c2.87 1.2 5.63 2.67 8.23 4.41l0-.001c2.59-1.74 5.35-3.21 8.23-4.41h-.001c-.06-2.13-.22-4.25-.5-6.35m-15.49 0l0-.001c-.88-.3-1.77-.57-2.66-.82h0c3.26-2.29 6.74-4.25 10.39-5.85v0c3.65 1.59 7.13 3.55 10.39 5.84 -.9.24-1.79.52-2.66.81m-15.49 0L4.19 10.1c2.66.89 5.25 2.01 7.74 3.34l0-.001c2.48-1.33 5.07-2.45 7.74-3.35M6.68 14.94v0c.41 0 .75-.34.75-.75 0-.42-.34-.75-.75-.75v0c-.42 0-.75.33-.75.75 0 .41.33.75.75.75Zm0 0v-3.68l0-.001c1.69-1.06 3.44-2.02 5.25-2.89M4.93 19.92v0c1.12-1.13 1.75-2.66 1.75-4.25v-1.5"/></svg>
